static/cards/FrenchDeck/cyberwave/card_diamonds_07.svg

<svg xmlns="http://www.w3.org/2000/svg" width="822" height="1122" fill="none" viewBox="0 0 822 1122"><rect width="822" height="1122" fill="#1a0033" rx="20"/><g fill="#b366ff" clip-path="url(#a)"><path d="M101.998 159q-.896 0-.896-.768 0-.64.512-1.536l42.112-78.464H92.141q-2.943 0-2.943-2.816v-.896q0-1.408.64-1.92.768-.64 2.303-.64h57.857q2.816 0 2.816 2.56 0 .896-.64 2.176a36 36 0 0 1-1.28 2.56l-42.24 78.976q-.256.512-.64.64-.257.128-.896.128zM112.679 208.481c3.959-5.938 12.683-5.938 16.642 0l21.981 32.972a10 10 0 0 1 0 11.094l-21.981 32.972c-3.959 5.938-12.683 5.938-16.642 0l-21.981-32.972a10 10 0 0 1 0-11.094zM712.002 959q.896 0 .896.768 0 .64-.512 1.536l-42.112 78.466h51.584c1.963 0 2.944.94 2.944 2.81v.9q0 1.41-.64 1.92c-.512.43-1.28.64-2.304.64h-57.856c-1.877 0-2.816-.85-2.816-2.56 0-.6.214-1.32.64-2.18.342-.76.768-1.62 1.28-2.56l42.24-78.972q.256-.512.64-.64.257-.128.896-.128zM701.321 909.519c-3.959 5.938-12.683 5.938-16.642 0l-21.981-32.972a10 10 0 0 1 0-11.094l21.981-32.972c3.959-5.938 12.683-5.938 16.642 0l21.981 32.972a10 10 0 0 1 0 11.094z"/></g><path stroke="#b366ff" stroke-width="8" d="M406.008 524.699c2.375-3.562 7.609-3.562 9.984 0l21.982 32.973a6 6 0 0 1 0 6.656l-21.982 32.973c-2.375 3.562-7.609 3.562-9.984 0l-21.982-32.973a6 6 0 0 1 0-6.656zM406.008 686.699c2.375-3.562 7.609-3.562 9.984 0l21.982 32.973a6 6 0 0 1 0 6.656l-21.982 32.973c-2.375 3.562-7.609 3.562-9.984 0l-21.982-32.973a6 6 0 0 1 0-6.656zM574.008 524.699c2.375-3.562 7.609-3.562 9.984 0l21.982 32.973a6 6 0 0 1 0 6.656l-21.982 32.973c-2.375 3.562-7.609 3.562-9.984 0l-21.982-32.973a6 6 0 0 1 0-6.656zM238.008 524.699c2.375-3.562 7.609-3.562 9.984 0l21.982 32.973a6 6 0 0 1 0 6.656l-21.982 32.973c-2.375 3.562-7.609 3.562-9.984 0l-21.982-32.973a6 6 0 0 1 0-6.656zM574.008 362.699c2.375-3.562 7.609-3.562 9.984 0l21.982 32.973a6 6 0 0 1 0 6.656l-21.982 32.973c-2.375 3.562-7.609 3.562-9.984 0l-21.982-32.973a6 6 0 0 1 0-6.656zM238.008 362.699c2.375-3.562 7.609-3.562 9.984 0l21.982 32.973a6 6 0 0 1 0 6.656l-21.982 32.973c-2.375 3.562-7.609 3.562-9.984 0l-21.982-32.973a6 6 0 0 1 0-6.656zM406.008 362.699c2.375-3.562 7.609-3.562 9.984 0l21.982 32.973a6 6 0 0 1 0 6.656l-21.982 32.973c-2.375 3.562-7.609 3.562-9.984 0l-21.982-32.973a6 6 0 0 1 0-6.656z"/><defs><clipPath id="a"><path fill="#fff" d="M46 48h722v1022H46z"/></clipPath></defs></svg>

<svg width="822" height="1122" viewBox="0 0 822 1122" fill="none" xmlns="http://www.w3.org/2000/svg">
<rect width="822" height="1122" rx="20" fill="#1A0033"/>
<g clip-path="url(#clip0_31_692)">
<path d="M101.998 159C101.4 159 101.102 158.744 101.102 158.232C101.102 157.805 101.272 157.293 101.614 156.696L143.726 78.232H92.1415C90.1788 78.232 89.1975 77.2933 89.1975 75.416V74.52C89.1975 73.5813 89.4108 72.9413 89.8375 72.6C90.3495 72.1733 91.1175 71.96 92.1415 71.96H149.998C151.875 71.96 152.814 72.8133 152.814 74.52C152.814 75.1173 152.6 75.8427 152.174 76.696C151.832 77.464 151.406 78.3173 150.894 79.256L108.654 158.232C108.483 158.573 108.27 158.787 108.014 158.872C107.843 158.957 107.544 159 107.118 159H101.998Z" fill="#B366FF"/>
<path d="M112.679 208.481C116.638 202.543 125.362 202.543 129.321 208.481L151.302 241.453C153.541 244.812 153.541 249.188 151.302 252.547L129.321 285.519C125.362 291.457 116.638 291.457 112.679 285.519L90.698 252.547C88.4587 249.188 88.4587 244.812 90.698 241.453L112.679 208.481Z" fill="#B366FF"/>
<path d="M712.002 959C712.6 959 712.898 959.256 712.898 959.768C712.898 960.195 712.728 960.707 712.386 961.304L670.274 1039.77H721.858C723.821 1039.77 724.802 1040.71 724.802 1042.58V1043.48C724.802 1044.42 724.589 1045.06 724.162 1045.4C723.65 1045.83 722.882 1046.04 721.858 1046.04H664.002C662.125 1046.04 661.186 1045.19 661.186 1043.48C661.186 1042.88 661.4 1042.16 661.826 1041.3C662.168 1040.54 662.594 1039.68 663.106 1038.74L705.346 959.768C705.517 959.427 705.73 959.213 705.986 959.128C706.157 959.043 706.456 959 706.882 959H712.002Z" fill="#B366FF"/>
<path d="M701.321 909.519C697.362 915.457 688.638 915.457 684.679 909.519L662.698 876.547C660.459 873.188 660.459 868.812 662.698 865.453L684.679 832.481C688.638 826.543 697.362 826.543 701.321 832.481L723.302 865.453C725.541 868.812 725.541 873.188 723.302 876.547L701.321 909.519Z" fill="#B366FF"/>
</g>
<path d="M406.008 524.699C408.383 521.137 413.617 521.137 415.992 524.699L437.974 557.672C439.317 559.687 439.317 562.313 437.974 564.328L415.992 597.301C413.617 600.863 408.383 600.863 406.008 597.301L384.026 564.328C382.683 562.313 382.683 559.687 384.026 557.672L406.008 524.699Z" stroke="#B366FF" stroke-width="8"/>
<path d="M406.008 686.699C408.383 683.137 413.617 683.137 415.992 686.699L437.974 719.672C439.317 721.687 439.317 724.313 437.974 726.328L415.992 759.301C413.617 762.863 408.383 762.863 406.008 759.301L384.026 726.328C382.683 724.313 382.683 721.687 384.026 719.672L406.008 686.699Z" stroke="#B366FF" stroke-width="8"/>
<path d="M574.008 524.699C576.383 521.137 581.617 521.137 583.992 524.699L605.974 557.672C607.317 559.687 607.317 562.313 605.974 564.328L583.992 597.301C581.617 600.863 576.383 600.863 574.008 597.301L552.026 564.328C550.683 562.313 550.683 559.687 552.026 557.672L574.008 524.699Z" stroke="#B366FF" stroke-width="8"/>
<path d="M238.008 524.699C240.383 521.137 245.617 521.137 247.992 524.699L269.974 557.672C271.317 559.687 271.317 562.313 269.974 564.328L247.992 597.301C245.617 600.863 240.383 600.863 238.008 597.301L216.026 564.328C214.683 562.313 214.683 559.687 216.026 557.672L238.008 524.699Z" stroke="#B366FF" stroke-width="8"/>
<path d="M574.008 362.699C576.383 359.137 581.617 359.137 583.992 362.699L605.974 395.672C607.317 397.687 607.317 400.313 605.974 402.328L583.992 435.301C581.617 438.863 576.383 438.863 574.008 435.301L552.026 402.328C550.683 400.313 550.683 397.687 552.026 395.672L574.008 362.699Z" stroke="#B366FF" stroke-width="8"/>
<path d="M238.008 362.699C240.383 359.137 245.617 359.137 247.992 362.699L269.974 395.672C271.317 397.687 271.317 400.313 269.974 402.328L247.992 435.301C245.617 438.863 240.383 438.863 238.008 435.301L216.026 402.328C214.683 400.313 214.683 397.687 216.026 395.672L238.008 362.699Z" stroke="#B366FF" stroke-width="8"/>
<path d="M406.008 362.699C408.383 359.137 413.617 359.137 415.992 362.699L437.974 395.672C439.317 397.687 439.317 400.313 437.974 402.328L415.992 435.301C413.617 438.863 408.383 438.863 406.008 435.301L384.026 402.328C382.683 400.313 382.683 397.687 384.026 395.672L406.008 362.699Z" stroke="#B366FF" stroke-width="8"/>
<defs>
<clipPath id="clip0_31_692">
<rect width="722" height="1022" fill="white" transform="translate(46 48)"/>
</clipPath>
</defs>
</svg>
